X:1
T:Mount Sion, CMD
T:Mount Sion, CMD
T:Horatio Parker, 1886
T:Public Domain Courtesy of the Cyber Hymnal™
C:Horatio Parker, 1886
Z:Public Domain
Z:Courtesy of the Cyber Hymnal™
%%score ( 1 2 ) ( 3 4 )
L:1/8
Q:1/4=112
M:4/4
K:C
V:1 treble 
V:2 treble 
V:3 bass 
V:4 bass 
V:1
 [EG]2"^Triumphantly" [EG][EG] GA [GB][Ec] | [Ge]2 [Fd]2 [Ec]3 [EG] | A3 z A AB cd | [Fd]4 [FG]4 | %4
 z2 [CEAc]2 z G^F x2 | [A,B,EG]2 [CEA]2 [B,EB]2 [Ee]2 | B3 z E [EA]2 G^F | E4 [B,E]2 [EG]2 | %8
 G3 z A [FG]2 G2 | G3 z A [EG]2 [EG]2 | [FG]2 AB [Gc]2 [^Fe]2 | d4- [Gd]2 [=FG]2 | %12
 e3 z d [_Bd]2 [Bc]2 | [Ad]2 [Ac]2 [DB]2 [^DA]2 | GA [FB][Gc] [Af]2 [Ge]2 | [Fd]4 [Ec]4 |] %16
V:2
 x4 E2 x2 | x8 | F2 (G2 G2) ^F2 x | x8 | (c4 [B,EB]2 A) [A,B,^D]2 | x8 | E2 E2 x ^D2 x2 | %7
 E2 DC x4 | F2 (E2 x E)D x2 | E2 ^D2 x5 | x2 D2 x4 | G2 ^F2 x4 | E2 G2 x5 | x8 | E2 x6 | x8 |] %16
V:3
 C2 [B,C][A,C] [G,C]2 C2 | (CB,) (A,B,) (CG,) C[C,B,] | [F,A,]2 B,^C [D,D]2 D=C x | %3
 (C2 B,A,) [G,B,]4 | z2 [^F,,^F,]2 B,A, G,F, x | [E,,E,G,]2 [^F,,^F,A,]2 [G,,G,B,]2 [A,,A,C]2 | %6
 [G,,G,B,]2 [C,D]2 [^F,,^F,C]2 B,A, x | G,2 B,A, [E,G,]2 [E,B,]2 | %8
 [D,B,]2 [G,,G,^A,]2 [D,B,]2 [G,,B,]2 x | [C,C]2 [G,,G,B,]2 [C,C]2 [^C,^A,]2 x | %10
 [D,B,]2 A,G, [E,G,]2 [A,C]2 | [B,D]2 [A,C]2 [G,B,]2 [G,B,]2 | [C,_B,]2 [C,G,]2 [G,C]2 (DE) x | %13
 [F,F]2 [F,E]2 [^F,D]2 [F,C]2 | [G,C]2 DE [G,C]2 [G,A,]2 | [G,B,]4 [C,C]4 |] %16
V:4
 C2 x2 E,C, x2 | G,2 G,,2 C,3 x | x2 E,2 x A,2 x2 | G,4 x4 | (C4 [G,,G,]2) B,,2 x | x8 | %6
 x6 B,,2 x | E,4 x4 | x9 | x9 | x2 F,2 x4 | x8 | x6 C,2 x | x8 | x2 G,2 x4 | x8 |] %16

